src/assets/icons/phone-zoom.svg

<svg width="127" height="34" viewBox="0 0 127 34" fill="none" xmlns="http://www.w3.org/2000/svg">
<rect width="127" height="34" rx="16.8527" fill="black" fill-opacity="0.2"/>
<ellipse cx="79.1154" cy="17.1316" rx="9.6291" ry="9.75194" fill="black" fill-opacity="0.4"/>
<path d="M78.3301 15.8757C78.3301 15.8544 78.3301 15.8163 78.3301 15.7866C78.3301 15.4004 78.6059 15.0525 79.0727 15.0525C79.497 15.0525 79.8152 15.358 79.8152 15.7484C79.8152 16.1896 79.48 16.5418 79.1787 16.8515L77.0997 19.0027V19.8598H81.2748V18.7566H78.9835V18.693L80.1504 17.4498C80.6256 16.9491 81.1857 16.4527 81.1857 15.6083C81.1857 14.6749 80.3668 13.9663 79.0981 13.9663C77.6597 13.9663 77.019 14.9125 77.019 15.7993V15.8757H78.3301Z" fill="#EEECEC"/>
<ellipse cx="16.3962" cy="17.1316" rx="9.6291" ry="9.75194" fill="black" fill-opacity="0.4"/>
<path d="M10.377 17.1019C10.377 18.85 11.2425 19.9659 12.6554 19.9659C14.0684 19.9659 14.9636 18.8245 14.9636 17.1019V16.8176C14.9636 15.0652 14.1108 13.9663 12.6851 13.9663C11.2595 13.9663 10.377 15.0907 10.377 16.8176V17.1019ZM11.7729 16.8218C11.7729 15.7187 12.1081 15.078 12.6682 15.078C13.2325 15.078 13.5677 15.7229 13.5677 16.8218V17.0976C13.5677 18.2008 13.2282 18.8542 12.6682 18.8542C12.1081 18.8542 11.7729 18.2051 11.7729 17.0976V16.8218Z" fill="#EEECEC"/>
<path d="M16.7414 21.434L17.2676 18.7397H15.9225L15.6383 21.434H16.7414Z" fill="#EEECEC"/>
<path d="M18.1628 18.2857C18.1883 19.2276 19.0157 19.9659 20.3183 19.9659C21.6676 19.9659 22.5925 19.1597 22.5925 17.8868C22.5925 16.6521 21.7142 15.9902 20.7256 15.9902C20.0637 15.9902 19.6734 16.3 19.5588 16.4866H19.4909L19.6012 15.1628H22.2446V14.0681H18.5108L18.2817 17.4795H19.5079C19.6097 17.2886 19.877 17.0128 20.3353 17.0128C20.8529 17.0128 21.2602 17.3819 21.2602 17.9335C21.2602 18.5275 20.8359 18.8967 20.3268 18.8967C19.8813 18.8967 19.4867 18.6633 19.4188 18.2857H18.1628Z" fill="#EEECEC"/>
<ellipse cx="110.345" cy="17.1316" rx="9.6291" ry="9.75194" fill="black" fill-opacity="0.4"/>
<path d="M109.69 17.3947H110.339C110.903 17.3947 111.234 17.7256 111.238 18.1499C111.243 18.5954 110.874 18.9094 110.322 18.9094C109.809 18.9052 109.422 18.6251 109.406 18.239H108.141C108.158 19.1598 108.905 19.9659 110.33 19.9659C111.523 19.9659 112.622 19.3846 112.613 18.2263C112.605 17.3225 111.93 16.9067 111.379 16.8558V16.7837C111.79 16.72 112.456 16.3169 112.448 15.4938C112.439 14.5985 111.646 13.9621 110.369 13.9663C109.036 13.9663 108.26 14.6622 108.226 15.6763H109.507C109.52 15.3326 109.834 15.0016 110.318 15.0016C110.759 15.0016 111.103 15.2732 111.103 15.6763C111.103 16.0666 110.784 16.3636 110.314 16.3636H109.69V17.3947Z" fill="#EEECEC"/>
<ellipse cx="47.7571" cy="17.0001" rx="14.7039" ry="14.8915" fill="black" fill-opacity="0.4"/>
<path d="M45.8495 20.5422V13.522H44.178L42.522 14.6894V16.1809L44.0957 15.0752H44.178V20.5422H45.8495Z" fill="#FFD50B"/>
<rect width="6.02396" height="1.04764" transform="matrix(0.702611 -0.711574 0.702611 0.711574 48.146 18.7823)" fill="#FFD50B"/>
<rect width="6.02396" height="1.04764" transform="matrix(0.702611 0.711574 -0.702611 0.711574 48.8823 14.4962)" fill="#FFD50B"/>
</svg>

<svg width="127" height="34" fill="none" xmlns="http://www.w3.org/2000/svg"><rect width="127" height="34" rx="16.853" fill="#000" fill-opacity=".2"/><ellipse cx="79.115" cy="17.132" rx="9.629" ry="9.752" fill="#000" fill-opacity=".4"/><path d="M78.33 15.876v-.09c0-.386.276-.733.743-.733.424 0 .742.305.742.695 0 .442-.335.794-.636 1.104l-2.08 2.15v.858h4.176v-1.103h-2.291v-.064l1.166-1.243c.476-.5 1.036-.997 1.036-1.842 0-.933-.82-1.642-2.088-1.642-1.438 0-2.079.947-2.079 1.833v.077h1.311Z" fill="#EEECEC"/><ellipse cx="16.396" cy="17.132" rx="9.629" ry="9.752" fill="#000" fill-opacity=".4"/><path d="M10.377 17.102c0 1.748.865 2.864 2.278 2.864s2.309-1.142 2.309-2.864v-.284c0-1.753-.853-2.852-2.279-2.852s-2.308 1.125-2.308 2.852v.284Zm1.396-.28c0-1.103.335-1.744.895-1.744.565 0 .9.645.9 1.744v.276c0 1.103-.34 1.756-.9 1.756s-.895-.649-.895-1.756v-.276ZM16.741 21.434l.527-2.694h-1.346l-.284 2.694h1.103ZM18.163 18.286c.025.942.853 1.68 2.155 1.68 1.35 0 2.274-.806 2.274-2.08 0-1.234-.878-1.896-1.866-1.896-.662 0-1.053.31-1.167.497h-.068l.11-1.324h2.644v-1.095H18.51l-.23 3.412h1.227a.923.923 0 0 1 .827-.467c.518 0 .925.369.925.92 0 .595-.424.964-.933.964-.446 0-.84-.234-.908-.611h-1.256Z" fill="#EEECEC"/><ellipse cx="110.345" cy="17.132" rx="9.629" ry="9.752" fill="#000" fill-opacity=".4"/><path d="M109.69 17.395h.649c.564 0 .895.33.899.755.005.445-.364.76-.916.76-.513-.005-.9-.285-.916-.671h-1.265c.017.92.764 1.727 2.189 1.727 1.193 0 2.292-.581 2.283-1.74-.008-.903-.683-1.32-1.234-1.37v-.072c.411-.064 1.077-.467 1.069-1.29-.009-.896-.802-1.532-2.079-1.528-1.333 0-2.109.696-2.143 1.71h1.281c.013-.343.327-.674.811-.674.441 0 .785.271.785.674 0 .39-.319.688-.789.688h-.624v1.03Z" fill="#EEECEC"/><ellipse cx="47.757" cy="17" rx="14.704" ry="14.892" fill="#000" fill-opacity=".4"/><path d="M45.85 20.542v-7.02h-1.672l-1.656 1.167v1.492l1.574-1.106h.082v5.467h1.672ZM48.146 18.782l4.233-4.286.736.746-4.233 4.286z" fill="#FFD50B"/><path fill="#FFD50B" d="m48.882 14.496 4.233 4.287-.737.745-4.232-4.286z"/></svg>
